public/avatar/hat/7.svg

<svg xmlns:xlink="http://www.w3.org/1999/xlink" height="92.9" width="100.7" xmlns="http://www.w3.org/2000/svg"><g transform="translate(38.65 49.75)"><use height="13.85" transform="translate(2.15 -4.95)" width="11.75" xlink:href="#a"/><use height="13.85" transform="matrix(-1 0 0 1 -2.15 -4.85)" width="11.75" xlink:href="#a"/></g><defs><use height="13.85" width="11.75" xlink:href="#b" id="a"/><g id="b"><path d="M1.6 5.4q2.55-4.3 2.2-9.1l-1.6.4q-3.3 1.15-4.9 4.35l-1.25.05-.8-.85-.6-1q3-5.15 9.95-5.65 1.75 4.55-.3 9.55l-1.6 3.3-.05-.4L1.6 5.4" fill="#fff" fill-rule="evenodd" transform="translate(5.85 6.9)"/><path d="M-2.7 1.05q1.6-3.2 4.9-4.35l1.6-.4q.35 4.8-2.2 9.1L0 2.9q-1-1.2-2.7-1.85" fill="#fcc" fill-rule="evenodd" transform="translate(5.85 6.9)"/><path d="m2.7 6.45 1.6-3.3q2.05-5 .3-9.55-6.95.5-9.95 5.65" fill="none" stroke="#333" stroke-linecap="round" stroke-linejoin="round" transform="translate(5.85 6.9)"/></g></defs></svg>

<?xml version="1.0" encoding="UTF-8" standalone="no"?>
<svg xmlns:xlink="http://www.w3.org/1999/xlink" height="92.9px" width="100.7px" xmlns="http://www.w3.org/2000/svg">
  <g transform="matrix(1.0, 0.0, 0.0, 1.0, 38.65, 49.75)">
    <use height="13.85" transform="matrix(1.0, 0.0, 0.0, 1.0, 2.15, -4.95)" width="11.75" xlink:href="#sprite0"/>
    <use height="13.85" transform="matrix(-1.0, 0.0, 0.0, 1.0, -2.15, -4.85)" width="11.75" xlink:href="#sprite0"/>
  </g>
  <defs>
    <g id="sprite0" transform="matrix(1.0, 0.0, 0.0, 1.0, 5.85, 6.9)">
      <use height="13.85" transform="matrix(1.0, 0.0, 0.0, 1.0, -5.85, -6.9)" width="11.75" xlink:href="#shape0"/>
    </g>
    <g id="shape0" transform="matrix(1.0, 0.0, 0.0, 1.0, 5.85, 6.9)">
      <path d="M1.6 5.4 Q4.15 1.1 3.8 -3.7 L2.2 -3.3 Q-1.1 -2.15 -2.7 1.05 L-3.95 1.1 -4.75 0.25 -5.35 -0.75 Q-2.35 -5.9 4.6 -6.4 6.35 -1.85 4.3 3.15 L2.7 6.45 2.65 6.05 1.6 5.4" fill="#ffffff" fill-rule="evenodd" stroke="none"/>
      <path d="M-2.7 1.05 Q-1.1 -2.15 2.2 -3.3 L3.8 -3.7 Q4.15 1.1 1.6 5.4 L0.0 2.9 Q-1.0 1.7 -2.7 1.05" fill="#ffcccc" fill-rule="evenodd" stroke="none"/>
      <path d="M2.7 6.45 L4.3 3.15 Q6.35 -1.85 4.6 -6.4 -2.35 -5.9 -5.35 -0.75" fill="none" stroke="#333333" stroke-linecap="round" stroke-linejoin="round" stroke-width="1.0"/>
    </g>
  </defs>
</svg>
